X:875
T:Row Well, Ye Mariners
C:John Playford, 1651
S:Colin Hume's website,  colinhume.com  - chords can also be printed below the stave.
Q:3/8=120
M:6/8
R:Jig
L:1/8
K:G
P:A
|: G | "D"F2E F2G | "/"A3- A2B | "Am"cdc "G"BAB | "D7"A2G "G"G2 :|
P:B&C
d | "D"ded "/"A2B | "/"cdB "/"A2d | "D"ded "/"A2B | "/"cdB "/"A2G | "G"GAG "D7"F2G | "D7"AFD "G"G2G | "G"GAG "D7"F2G | "D7"AFD "G"G3 ||
P:D
|: "D7"d3 A3 | "/"d3 A3 | "D7"d2e d2c | "G"B2A G3 :|

